images/3235289.svg

<?xml version="1.0" encoding="UTF-8"?>
<svg xmlns="http://www.w3.org/2000/svg" xmlns:xlink="http://www.w3.org/1999/xlink" width="300pt" height="300pt" viewBox="0 0 300 300" version="1.1">
<defs>
<g>
<symbol overflow="visible" id="glyph0-0">
<path style="stroke:none;" d="M 0.453125 1.59375 L 0.453125 -6.34375 L 4.953125 -6.34375 L 4.953125 1.59375 Z M 0.953125 1.09375 L 4.453125 1.09375 L 4.453125 -5.84375 L 0.953125 -5.84375 Z M 0.953125 1.09375 "/>
</symbol>
<symbol overflow="visible" id="glyph0-1">
<path style="stroke:none;" d="M 3.546875 -5.953125 C 2.898438 -5.953125 2.382812 -5.710938 2 -5.234375 C 1.625 -4.753906 1.4375 -4.101562 1.4375 -3.28125 C 1.4375 -2.445312 1.625 -1.789062 2 -1.3125 C 2.382812 -0.832031 2.898438 -0.59375 3.546875 -0.59375 C 4.191406 -0.59375 4.703125 -0.832031 5.078125 -1.3125 C 5.453125 -1.789062 5.640625 -2.445312 5.640625 -3.28125 C 5.640625 -4.101562 5.453125 -4.753906 5.078125 -5.234375 C 4.703125 -5.710938 4.191406 -5.953125 3.546875 -5.953125 Z M 3.546875 -6.6875 C 4.460938 -6.6875 5.195312 -6.375 5.75 -5.75 C 6.300781 -5.132812 6.578125 -4.3125 6.578125 -3.28125 C 6.578125 -2.238281 6.300781 -1.410156 5.75 -0.796875 C 5.195312 -0.179688 4.460938 0.125 3.546875 0.125 C 2.617188 0.125 1.878906 -0.179688 1.328125 -0.796875 C 0.773438 -1.410156 0.5 -2.238281 0.5 -3.28125 C 0.5 -4.3125 0.773438 -5.132812 1.328125 -5.75 C 1.878906 -6.375 2.617188 -6.6875 3.546875 -6.6875 Z M 3.546875 -6.6875 "/>
</symbol>
<symbol overflow="visible" id="glyph0-2">
<path style="stroke:none;" d="M 0.890625 -6.5625 L 2.078125 -6.5625 L 4.984375 -1.078125 L 4.984375 -6.5625 L 5.84375 -6.5625 L 5.84375 0 L 4.65625 0 L 1.75 -5.484375 L 1.75 0 L 0.890625 0 Z M 0.890625 -6.5625 "/>
</symbol>
<symbol overflow="visible" id="glyph0-3">
<path style="stroke:none;" d="M 0.890625 -6.5625 L 1.765625 -6.5625 L 1.765625 -3.875 L 5 -3.875 L 5 -6.5625 L 5.890625 -6.5625 L 5.890625 0 L 5 0 L 5 -3.125 L 1.765625 -3.125 L 1.765625 0 L 0.890625 0 Z M 0.890625 -6.5625 "/>
</symbol>
</g>
</defs>
<g id="surface48201">
<rect x="0" y="0" width="300" height="300" style="fill:rgb(100%,100%,100%);fill-opacity:1;stroke:none;"/>
<path style="fill:none;stroke-width:1.2;stroke-linecap:butt;stroke-linejoin:miter;stroke:rgb(0%,0%,0%);stroke-opacity:1;stroke-miterlimit:10;" d="M 72.941406 77.789062 L 63.039062 84.613281 "/>
<path style="fill:none;stroke-width:1.2;stroke-linecap:butt;stroke-linejoin:miter;stroke:rgb(100%,0%,0%);stroke-opacity:1;stroke-miterlimit:10;" d="M 63.039062 84.613281 L 53.136719 91.4375 "/>
<path style="fill:none;stroke-width:1.2;stroke-linecap:butt;stroke-linejoin:miter;stroke:rgb(100%,0%,0%);stroke-opacity:1;stroke-miterlimit:10;" d="M 53.136719 91.4375 L 54.097656 103.425781 "/>
<path style="fill:none;stroke-width:1.2;stroke-linecap:butt;stroke-linejoin:miter;stroke:rgb(0%,0%,0%);stroke-opacity:1;stroke-miterlimit:10;" d="M 54.097656 103.425781 L 55.054688 115.410156 "/>
<path style=" stroke:none;fill-rule:nonzero;fill:rgb(100%,100%,100%);fill-opacity:1;" d="M 49.136719 85.9375 L 57.136719 85.9375 L 57.136719 96.9375 L 49.136719 96.9375 Z M 49.136719 85.9375 "/>
<g style="fill:rgb(100%,0%,0%);fill-opacity:1;">
  <use xlink:href="#glyph0-1" x="49.136719" y="94.600586"/>
</g>
<path style="fill:none;stroke-width:1.2;stroke-linecap:butt;stroke-linejoin:miter;stroke:rgb(0%,0%,0%);stroke-opacity:1;stroke-miterlimit:10;" d="M 55.054688 115.410156 L 76.777344 125.738281 "/>
<path style="fill:none;stroke-width:1.2;stroke-linecap:butt;stroke-linejoin:miter;stroke:rgb(0%,0%,0%);stroke-opacity:1;stroke-miterlimit:10;" d="M 54.796875 121.554688 L 72.175781 129.816406 "/>
<path style="fill:none;stroke-width:1.2;stroke-linecap:butt;stroke-linejoin:miter;stroke:rgb(0%,0%,0%);stroke-opacity:1;stroke-miterlimit:10;" d="M 35.25 129.058594 L 55.054688 115.410156 "/>
<path style="fill:none;stroke-width:1.2;stroke-linecap:butt;stroke-linejoin:miter;stroke:rgb(0%,0%,0%);stroke-opacity:1;stroke-miterlimit:10;" d="M 76.777344 125.738281 L 78.691406 149.714844 "/>
<path style="fill:none;stroke-width:1.2;stroke-linecap:butt;stroke-linejoin:miter;stroke:rgb(0%,0%,0%);stroke-opacity:1;stroke-miterlimit:10;" d="M 78.691406 149.714844 L 58.886719 163.363281 "/>
<path style="fill:none;stroke-width:1.2;stroke-linecap:butt;stroke-linejoin:miter;stroke:rgb(0%,0%,0%);stroke-opacity:1;stroke-miterlimit:10;" d="M 79.925781 155.738281 L 64.078125 166.65625 "/>
<path style="fill:none;stroke-width:1.2;stroke-linecap:butt;stroke-linejoin:miter;stroke:rgb(0%,0%,0%);stroke-opacity:1;stroke-miterlimit:10;" d="M 97.792969 164.332031 L 78.691406 149.714844 "/>
<path style="fill:none;stroke-width:1.2;stroke-linecap:butt;stroke-linejoin:miter;stroke:rgb(0%,0%,0%);stroke-opacity:1;stroke-miterlimit:10;" d="M 58.886719 163.363281 L 37.167969 153.035156 "/>
<path style="fill:none;stroke-width:1.2;stroke-linecap:butt;stroke-linejoin:miter;stroke:rgb(0%,0%,0%);stroke-opacity:1;stroke-miterlimit:10;" d="M 58.886719 163.363281 L 62.316406 174.890625 "/>
<path style="fill:none;stroke-width:1.2;stroke-linecap:butt;stroke-linejoin:miter;stroke:rgb(0%,0%,100%);stroke-opacity:1;stroke-miterlimit:10;" d="M 62.316406 174.890625 L 65.746094 186.414062 "/>
<path style="fill:none;stroke-width:1.2;stroke-linecap:butt;stroke-linejoin:miter;stroke:rgb(0%,0%,0%);stroke-opacity:1;stroke-miterlimit:10;" d="M 37.167969 153.035156 L 35.25 129.058594 "/>
<path style="fill:none;stroke-width:1.2;stroke-linecap:butt;stroke-linejoin:miter;stroke:rgb(0%,0%,0%);stroke-opacity:1;stroke-miterlimit:10;" d="M 42.617188 150.1875 L 41.082031 131.007812 "/>
<path style="fill:none;stroke-width:1.2;stroke-linecap:butt;stroke-linejoin:miter;stroke:rgb(0%,0%,100%);stroke-opacity:1;stroke-miterlimit:10;" d="M 65.746094 186.414062 L 77.769531 186.714844 "/>
<path style="fill:none;stroke-width:1.2;stroke-linecap:butt;stroke-linejoin:miter;stroke:rgb(0%,0%,0%);stroke-opacity:1;stroke-miterlimit:10;" d="M 77.769531 186.714844 L 89.792969 187.015625 "/>
<path style=" stroke:none;fill-rule:nonzero;fill:rgb(100%,100%,100%);fill-opacity:1;" d="M 58.746094 180.914062 L 72.746094 180.914062 L 72.746094 191.914062 L 58.746094 191.914062 Z M 58.746094 180.914062 "/>
<g style="fill:rgb(0%,0%,100%);fill-opacity:1;">
  <use xlink:href="#glyph0-2" x="58.746094" y="189.577148"/>
  <use xlink:href="#glyph0-3" x="65.723633" y="189.577148"/>
</g>
<path style="fill:none;stroke-width:1.2;stroke-linecap:butt;stroke-linejoin:miter;stroke:rgb(0%,0%,0%);stroke-opacity:1;stroke-miterlimit:10;" d="M 89.792969 187.015625 L 97.792969 164.332031 "/>
<path style="fill:none;stroke-width:1.2;stroke-linecap:butt;stroke-linejoin:miter;stroke:rgb(0%,0%,0%);stroke-opacity:1;stroke-miterlimit:10;" d="M 85.253906 182.863281 L 91.65625 164.71875 "/>
<path style="fill:none;stroke-width:1.2;stroke-linecap:butt;stroke-linejoin:miter;stroke:rgb(0%,0%,0%);stroke-opacity:1;stroke-miterlimit:10;" d="M 97.792969 164.332031 L 120.847656 157.472656 "/>
<path style="fill:none;stroke-width:1.2;stroke-linecap:butt;stroke-linejoin:miter;stroke:rgb(0%,0%,0%);stroke-opacity:1;stroke-miterlimit:10;" d="M 120.847656 157.472656 L 138.3125 174.007812 "/>
<path style="fill:none;stroke-width:1.2;stroke-linecap:butt;stroke-linejoin:miter;stroke:rgb(0%,0%,0%);stroke-opacity:1;stroke-miterlimit:10;" d="M 138.3125 174.007812 L 149.839844 170.578125 "/>
<path style="fill:none;stroke-width:1.2;stroke-linecap:butt;stroke-linejoin:miter;stroke:rgb(0%,0%,100%);stroke-opacity:1;stroke-miterlimit:10;" d="M 149.839844 170.578125 L 161.367188 167.148438 "/>
<path style="fill:none;stroke-width:1.2;stroke-linecap:butt;stroke-linejoin:miter;stroke:rgb(0%,0%,100%);stroke-opacity:1;stroke-miterlimit:10;" d="M 161.367188 167.148438 L 170.101562 175.417969 "/>
<path style="fill:none;stroke-width:1.2;stroke-linecap:butt;stroke-linejoin:miter;stroke:rgb(0%,0%,0%);stroke-opacity:1;stroke-miterlimit:10;" d="M 170.101562 175.417969 L 178.832031 183.683594 "/>
<path style=" stroke:none;fill-rule:nonzero;fill:rgb(100%,100%,100%);fill-opacity:1;" d="M 154.367188 161.648438 L 168.367188 161.648438 L 168.367188 172.648438 L 154.367188 172.648438 Z M 154.367188 161.648438 "/>
<g style="fill:rgb(0%,0%,100%);fill-opacity:1;">
  <use xlink:href="#glyph0-2" x="154.367188" y="170.311523"/>
  <use xlink:href="#glyph0-3" x="161.344727" y="170.311523"/>
</g>
<path style="fill:none;stroke-width:1.2;stroke-linecap:butt;stroke-linejoin:miter;stroke:rgb(0%,0%,0%);stroke-opacity:1;stroke-miterlimit:10;" d="M 178.832031 183.683594 L 176.039062 195.378906 "/>
<path style="fill:none;stroke-width:1.2;stroke-linecap:butt;stroke-linejoin:miter;stroke:rgb(0%,0%,100%);stroke-opacity:1;stroke-miterlimit:10;" d="M 176.039062 195.378906 L 173.246094 207.078125 "/>
<path style="fill:none;stroke-width:1.2;stroke-linecap:butt;stroke-linejoin:miter;stroke:rgb(0%,0%,0%);stroke-opacity:1;stroke-miterlimit:10;" d="M 183.777344 187.335938 L 181.542969 196.695312 "/>
<path style="fill:none;stroke-width:1.2;stroke-linecap:butt;stroke-linejoin:miter;stroke:rgb(0%,0%,100%);stroke-opacity:1;stroke-miterlimit:10;" d="M 181.542969 196.695312 L 179.308594 206.054688 "/>
<path style="fill:none;stroke-width:1.2;stroke-linecap:butt;stroke-linejoin:miter;stroke:rgb(0%,0%,0%);stroke-opacity:1;stroke-miterlimit:10;" d="M 201.886719 176.824219 L 178.832031 183.683594 "/>
<path style="fill:none;stroke-width:1.2;stroke-linecap:butt;stroke-linejoin:miter;stroke:rgb(0%,0%,100%);stroke-opacity:1;stroke-miterlimit:10;" d="M 173.246094 207.078125 L 181.980469 215.34375 "/>
<path style="fill:none;stroke-width:1.2;stroke-linecap:butt;stroke-linejoin:miter;stroke:rgb(0%,0%,0%);stroke-opacity:1;stroke-miterlimit:10;" d="M 181.980469 215.34375 L 190.714844 223.613281 "/>
<path style=" stroke:none;fill-rule:nonzero;fill:rgb(100%,100%,100%);fill-opacity:1;" d="M 170.246094 201.578125 L 177.246094 201.578125 L 177.246094 212.578125 L 170.246094 212.578125 Z M 170.246094 201.578125 "/>
<g style="fill:rgb(0%,0%,100%);fill-opacity:1;">
  <use xlink:href="#glyph0-2" x="170.246094" y="210.241211"/>
</g>
<path style="fill:none;stroke-width:1.2;stroke-linecap:butt;stroke-linejoin:miter;stroke:rgb(0%,0%,0%);stroke-opacity:1;stroke-miterlimit:10;" d="M 190.714844 223.613281 L 202.242188 220.183594 "/>
<path style="fill:none;stroke-width:1.2;stroke-linecap:butt;stroke-linejoin:miter;stroke:rgb(0%,0%,100%);stroke-opacity:1;stroke-miterlimit:10;" d="M 202.242188 220.183594 L 213.765625 216.753906 "/>
<path style="fill:none;stroke-width:1.2;stroke-linecap:butt;stroke-linejoin:miter;stroke:rgb(0%,0%,0%);stroke-opacity:1;stroke-miterlimit:10;" d="M 191.40625 217.503906 L 200.625 214.757812 "/>
<path style="fill:none;stroke-width:1.2;stroke-linecap:butt;stroke-linejoin:miter;stroke:rgb(0%,0%,100%);stroke-opacity:1;stroke-miterlimit:10;" d="M 200.625 214.757812 L 209.847656 212.015625 "/>
<path style="fill:none;stroke-width:1.2;stroke-linecap:butt;stroke-linejoin:miter;stroke:rgb(0%,0%,100%);stroke-opacity:1;stroke-miterlimit:10;" d="M 213.765625 216.753906 L 216.558594 205.054688 "/>
<path style="fill:none;stroke-width:1.2;stroke-linecap:butt;stroke-linejoin:miter;stroke:rgb(0%,0%,0%);stroke-opacity:1;stroke-miterlimit:10;" d="M 216.558594 205.054688 L 219.351562 193.359375 "/>
<path style=" stroke:none;fill-rule:nonzero;fill:rgb(100%,100%,100%);fill-opacity:1;" d="M 210.765625 211.253906 L 217.765625 211.253906 L 217.765625 222.253906 L 210.765625 222.253906 Z M 210.765625 211.253906 "/>
<g style="fill:rgb(0%,0%,100%);fill-opacity:1;">
  <use xlink:href="#glyph0-2" x="210.765625" y="219.916992"/>
</g>
<path style="fill:none;stroke-width:1.2;stroke-linecap:butt;stroke-linejoin:miter;stroke:rgb(0%,0%,0%);stroke-opacity:1;stroke-miterlimit:10;" d="M 219.351562 193.359375 L 201.886719 176.824219 "/>
<path style="fill:none;stroke-width:1.2;stroke-linecap:butt;stroke-linejoin:miter;stroke:rgb(0%,0%,0%);stroke-opacity:1;stroke-miterlimit:10;" d="M 221.496094 187.59375 L 207.523438 174.367188 "/>
<path style="fill:none;stroke-width:1.2;stroke-linecap:butt;stroke-linejoin:miter;stroke:rgb(0%,0%,0%);stroke-opacity:1;stroke-miterlimit:10;" d="M 242.40625 186.5 L 219.351562 193.359375 "/>
<path style="fill:none;stroke-width:1.2;stroke-linecap:butt;stroke-linejoin:miter;stroke:rgb(0%,0%,0%);stroke-opacity:1;stroke-miterlimit:10;" d="M 201.886719 176.824219 L 207.472656 153.429688 "/>
<path style="fill:none;stroke-width:1.2;stroke-linecap:butt;stroke-linejoin:miter;stroke:rgb(0%,0%,0%);stroke-opacity:1;stroke-miterlimit:10;" d="M 207.472656 153.429688 L 230.523438 146.570312 "/>
<path style="fill:none;stroke-width:1.2;stroke-linecap:butt;stroke-linejoin:miter;stroke:rgb(0%,0%,0%);stroke-opacity:1;stroke-miterlimit:10;" d="M 211.390625 158.167969 L 229.832031 152.679688 "/>
<path style="fill:none;stroke-width:1.2;stroke-linecap:butt;stroke-linejoin:miter;stroke:rgb(0%,0%,0%);stroke-opacity:1;stroke-miterlimit:10;" d="M 230.523438 146.570312 L 247.992188 163.105469 "/>
<path style="fill:none;stroke-width:1.2;stroke-linecap:butt;stroke-linejoin:miter;stroke:rgb(0%,0%,0%);stroke-opacity:1;stroke-miterlimit:10;" d="M 230.523438 146.570312 L 236.109375 123.175781 "/>
<path style="fill:none;stroke-width:1.2;stroke-linecap:butt;stroke-linejoin:miter;stroke:rgb(0%,0%,0%);stroke-opacity:1;stroke-miterlimit:10;" d="M 247.992188 163.105469 L 242.40625 186.5 "/>
<path style="fill:none;stroke-width:1.2;stroke-linecap:butt;stroke-linejoin:miter;stroke:rgb(0%,0%,0%);stroke-opacity:1;stroke-miterlimit:10;" d="M 241.929688 164.128906 L 237.460938 182.84375 "/>
<path style="fill:none;stroke-width:1.2;stroke-linecap:butt;stroke-linejoin:miter;stroke:rgb(0%,0%,0%);stroke-opacity:1;stroke-miterlimit:10;" d="M 236.109375 123.175781 L 259.164062 116.316406 "/>
<path style="fill:none;stroke-width:1.2;stroke-linecap:butt;stroke-linejoin:miter;stroke:rgb(0%,0%,0%);stroke-opacity:1;stroke-miterlimit:10;" d="M 236.800781 117.066406 L 255.246094 111.578125 "/>
<path style="fill:none;stroke-width:1.2;stroke-linecap:butt;stroke-linejoin:miter;stroke:rgb(0%,0%,0%);stroke-opacity:1;stroke-miterlimit:10;" d="M 218.644531 106.640625 L 236.109375 123.175781 "/>
<path style="fill:none;stroke-width:1.2;stroke-linecap:butt;stroke-linejoin:miter;stroke:rgb(0%,0%,0%);stroke-opacity:1;stroke-miterlimit:10;" d="M 259.164062 116.316406 L 264.75 92.921875 "/>
<path style="fill:none;stroke-width:1.2;stroke-linecap:butt;stroke-linejoin:miter;stroke:rgb(0%,0%,0%);stroke-opacity:1;stroke-miterlimit:10;" d="M 264.75 92.921875 L 247.28125 76.386719 "/>
<path style="fill:none;stroke-width:1.2;stroke-linecap:butt;stroke-linejoin:miter;stroke:rgb(0%,0%,0%);stroke-opacity:1;stroke-miterlimit:10;" d="M 259.113281 95.378906 L 245.140625 82.152344 "/>
<path style="fill:none;stroke-width:1.2;stroke-linecap:butt;stroke-linejoin:miter;stroke:rgb(0%,0%,0%);stroke-opacity:1;stroke-miterlimit:10;" d="M 247.28125 76.386719 L 224.230469 83.246094 "/>
<path style="fill:none;stroke-width:1.2;stroke-linecap:butt;stroke-linejoin:miter;stroke:rgb(0%,0%,0%);stroke-opacity:1;stroke-miterlimit:10;" d="M 224.230469 83.246094 L 218.644531 106.640625 "/>
<path style="fill:none;stroke-width:1.2;stroke-linecap:butt;stroke-linejoin:miter;stroke:rgb(0%,0%,0%);stroke-opacity:1;stroke-miterlimit:10;" d="M 229.175781 86.902344 L 224.707031 105.617188 "/>
<path style="fill:none;stroke-width:1.2;stroke-linecap:butt;stroke-linejoin:miter;stroke:rgb(0%,0%,0%);stroke-opacity:1;stroke-miterlimit:10;" d="M 218.644531 106.640625 L 195.589844 113.5 "/>
<path style="fill:none;stroke-width:1.2;stroke-linecap:butt;stroke-linejoin:miter;stroke:rgb(0%,0%,0%);stroke-opacity:1;stroke-miterlimit:10;" d="M 195.589844 113.5 L 184.066406 116.929688 "/>
<path style="fill:none;stroke-width:1.2;stroke-linecap:butt;stroke-linejoin:miter;stroke:rgb(0%,0%,100%);stroke-opacity:1;stroke-miterlimit:10;" d="M 184.066406 116.929688 L 172.539062 120.359375 "/>
<path style="fill:none;stroke-width:1.2;stroke-linecap:butt;stroke-linejoin:miter;stroke:rgb(0%,0%,0%);stroke-opacity:1;stroke-miterlimit:10;" d="M 191.671875 108.761719 L 182.449219 111.507812 "/>
<path style="fill:none;stroke-width:1.2;stroke-linecap:butt;stroke-linejoin:miter;stroke:rgb(0%,0%,100%);stroke-opacity:1;stroke-miterlimit:10;" d="M 182.449219 111.507812 L 173.230469 114.25 "/>
<path style="fill:none;stroke-width:1.2;stroke-linecap:butt;stroke-linejoin:miter;stroke:rgb(0%,0%,0%);stroke-opacity:1;stroke-miterlimit:10;" d="M 194.898438 119.609375 L 185.679688 122.355469 "/>
<path style="fill:none;stroke-width:1.2;stroke-linecap:butt;stroke-linejoin:miter;stroke:rgb(0%,0%,100%);stroke-opacity:1;stroke-miterlimit:10;" d="M 185.679688 122.355469 L 176.457031 125.097656 "/>
<path style=" stroke:none;fill-rule:nonzero;fill:rgb(100%,100%,100%);fill-opacity:1;" d="M 165.539062 114.859375 L 172.539062 114.859375 L 172.539062 125.859375 L 165.539062 125.859375 Z M 165.539062 114.859375 "/>
<g style="fill:rgb(0%,0%,100%);fill-opacity:1;">
  <use xlink:href="#glyph0-2" x="165.539062" y="123.522461"/>
</g>
</g>
</svg>

<svg xmlns="http://www.w3.org/2000/svg" xmlns:xlink="http://www.w3.org/1999/xlink" width="300pt" height="300pt" viewBox="0 0 300 300"><defs><symbol overflow="visible"><path d="M.453 1.594v-7.938h4.5v7.938zm.5-.5h3.5v-6.938h-3.5zm0 0"/></symbol><symbol overflow="visible" id="a"><path d="M3.547-5.953c-.65 0-1.164.242-1.547.72-.375.48-.563 1.13-.563 1.952 0 .835.188 1.49.563 1.967.383.48.898.72 1.547.72.644 0 1.156-.24 1.53-.72.376-.476.564-1.132.564-1.968 0-.822-.187-1.474-.562-1.954-.375-.477-.887-.72-1.53-.72zm0-.734c.914 0 1.648.312 2.203.937.55.617.828 1.438.828 2.47 0 1.042-.277 1.87-.828 2.483-.555.617-1.29.922-2.203.922-.93 0-1.668-.305-2.22-.922C.774-1.41.5-2.237.5-3.28c0-1.033.273-1.853.828-2.47.55-.625 1.29-.938 2.22-.938zm0 0"/></symbol><symbol overflow="visible" id="b"><path d="M.89-6.563H2.08l2.906 5.485v-5.484h.86V0H4.656L1.75-5.484V0H.89zm0 0"/></symbol><symbol overflow="visible" id="c"><path d="M.89-6.563h.876v2.688H5v-2.688h.89V0H5v-3.125H1.766V0H.89zm0 0"/></symbol></defs><g><path fill="#fff" d="M0 0h300v300H0z"/><path d="M72.94 77.79l-9.9 6.823" stroke-width="1.2" stroke="#000" stroke-miterlimit="10" fill="none"/><path d="M63.04 84.613l-9.903 6.825M53.137 91.438l.96 11.988" stroke-width="1.2" stroke="#f00" stroke-miterlimit="10" fill="none"/><path d="M54.098 103.426l.957 11.984" stroke-width="1.2" stroke="#000" stroke-miterlimit="10" fill="none"/><path d="M49.137 85.938h8v11h-8zm0 0" fill="#fff"/><use xlink:href="#a" x="49.137" y="94.601" fill="#f00"/><path d="M55.055 115.41l21.722 10.328M54.797 121.555l17.38 8.26M35.25 129.06l19.805-13.65M76.777 125.738l1.914 23.977M78.69 149.715l-19.803 13.648M79.926 155.738l-15.848 10.918M97.793 164.332L78.69 149.715M58.887 163.363l-21.72-10.328M58.887 163.363l3.43 11.528" stroke-width="1.2" stroke="#000" stroke-miterlimit="10" fill="none"/><path d="M62.316 174.89l3.43 11.524" stroke-width="1.2" stroke="#00f" stroke-miterlimit="10" fill="none"/><path d="M37.168 153.035L35.25 129.06M42.617 150.188l-1.535-19.18" stroke-width="1.2" stroke="#000" stroke-miterlimit="10" fill="none"/><path d="M65.746 186.414l12.024.3" stroke-width="1.2" stroke="#00f" stroke-miterlimit="10" fill="none"/><path d="M77.77 186.715l12.023.3" stroke-width="1.2" stroke="#000" stroke-miterlimit="10" fill="none"/><path d="M58.746 180.914h14v11h-14zm0 0" fill="#fff"/><g fill="#00f"><use xlink:href="#b" x="58.746" y="189.577"/><use xlink:href="#c" x="65.724" y="189.577"/></g><path d="M89.793 187.016l8-22.684M85.254 182.863l6.402-18.144M97.793 164.332l23.055-6.86M120.848 157.473l17.465 16.535M138.313 174.008l11.527-3.43" stroke-width="1.2" stroke="#000" stroke-miterlimit="10" fill="none"/><path d="M149.84 170.578l11.527-3.43M161.367 167.148l8.735 8.27" stroke-width="1.2" stroke="#00f" stroke-miterlimit="10" fill="none"/><path d="M170.102 175.418l8.73 8.266" stroke-width="1.2" stroke="#000" stroke-miterlimit="10" fill="none"/><path d="M154.367 161.648h14v11h-14zm0 0" fill="#fff"/><g fill="#00f"><use xlink:href="#b" x="154.367" y="170.312"/><use xlink:href="#c" x="161.345" y="170.312"/></g><path d="M178.832 183.684l-2.793 11.695" stroke-width="1.2" stroke="#000" stroke-miterlimit="10" fill="none"/><path d="M176.04 195.38l-2.794 11.698" stroke-width="1.2" stroke="#00f" stroke-miterlimit="10" fill="none"/><path d="M183.777 187.336l-2.234 9.36" stroke-width="1.2" stroke="#000" stroke-miterlimit="10" fill="none"/><path d="M181.543 196.695l-2.234 9.36" stroke-width="1.2" stroke="#00f" stroke-miterlimit="10" fill="none"/><path d="M201.887 176.824l-23.055 6.86" stroke-width="1.2" stroke="#000" stroke-miterlimit="10" fill="none"/><path d="M173.246 207.078l8.734 8.266" stroke-width="1.2" stroke="#00f" stroke-miterlimit="10" fill="none"/><path d="M181.98 215.344l8.735 8.27" stroke-width="1.2" stroke="#000" stroke-miterlimit="10" fill="none"/><path d="M170.246 201.578h7v11h-7zm0 0" fill="#fff"/><use xlink:href="#b" x="170.246" y="210.241" fill="#00f"/><path d="M190.715 223.613l11.527-3.43" stroke-width="1.2" stroke="#000" stroke-miterlimit="10" fill="none"/><path d="M202.242 220.184l11.524-3.43" stroke-width="1.2" stroke="#00f" stroke-miterlimit="10" fill="none"/><path d="M191.406 217.504l9.22-2.746" stroke-width="1.2" stroke="#000" stroke-miterlimit="10" fill="none"/><path d="M200.625 214.758l9.223-2.742M213.766 216.754l2.793-11.7" stroke-width="1.2" stroke="#00f" stroke-miterlimit="10" fill="none"/><path d="M216.56 205.055l2.792-11.696" stroke-width="1.2" stroke="#000" stroke-miterlimit="10" fill="none"/><path d="M210.766 211.254h7v11h-7zm0 0" fill="#fff"/><use xlink:href="#b" x="210.766" y="219.917" fill="#00f"/><path d="M219.352 193.36l-17.465-16.536M221.496 187.594l-13.973-13.227M242.406 186.5l-23.054 6.86M201.887 176.824l5.586-23.394M207.473 153.43l23.05-6.86M211.39 158.168l18.442-5.488M230.523 146.57l17.47 16.535M230.523 146.57l5.586-23.394M247.992 163.105l-5.586 23.395M241.93 164.13l-4.47 18.714M236.11 123.176l23.054-6.86M236.8 117.066l18.446-5.488M218.645 106.64l17.464 16.536M259.164 116.316l5.586-23.394M264.75 92.922l-17.47-16.535M259.113 95.38L245.14 82.15M247.28 76.387l-23.05 6.86M224.23 83.246l-5.585 23.395M229.176 86.902l-4.47 18.715M218.645 106.64l-23.055 6.86M195.59 113.5l-11.524 3.43" stroke-width="1.2" stroke="#000" stroke-miterlimit="10" fill="none"/><path d="M184.066 116.93l-11.527 3.43" stroke-width="1.2" stroke="#00f" stroke-miterlimit="10" fill="none"/><path d="M191.672 108.762l-9.223 2.746" stroke-width="1.2" stroke="#000" stroke-miterlimit="10" fill="none"/><path d="M182.45 111.508l-9.22 2.742" stroke-width="1.2" stroke="#00f" stroke-miterlimit="10" fill="none"/><path d="M194.898 119.61l-9.218 2.745" stroke-width="1.2" stroke="#000" stroke-miterlimit="10" fill="none"/><path d="M185.68 122.355l-9.223 2.743" stroke-width="1.2" stroke="#00f" stroke-miterlimit="10" fill="none"/><path d="M165.54 114.86h7v11h-7zm0 0" fill="#fff"/><use xlink:href="#b" x="165.539" y="123.522" fill="#00f"/></g></svg>
